src/assets/icons/face-smile.svg

<svg width="14" height="14" viewBox="0 0 14 14" fill="none" xmlns="http://www.w3.org/2000/svg">
<g id="face-smile">
<g clip-path="url(#clip0_295_4721)">
<path id="Vector" fill-rule="evenodd" clip-rule="evenodd" d="M1.16667 7C1.16667 3.77834 3.77834 1.16667 7 1.16667C10.2217 1.16667 12.8333 3.77834 12.8333 7C12.8333 10.2217 10.2217 12.8333 7 12.8333C3.77834 12.8333 1.16667 10.2217 1.16667 7ZM7 0C3.13401 0 0 3.13401 0 7C0 10.866 3.13401 14 7 14C10.866 14 14 10.866 14 7C14 3.13401 10.866 0 7 0ZM4.86111 5.83333C5.39805 5.83333 5.83333 5.39805 5.83333 4.86111C5.83333 4.32417 5.39805 3.88889 4.86111 3.88889C4.32417 3.88889 3.88889 4.32417 3.88889 4.86111C3.88889 5.39805 4.32417 5.83333 4.86111 5.83333ZM10.1111 4.86111C10.1111 5.39805 9.67583 5.83333 9.13889 5.83333C8.60194 5.83333 8.16667 5.39805 8.16667 4.86111C8.16667 4.32417 8.60194 3.88889 9.13889 3.88889C9.67583 3.88889 10.1111 4.32417 10.1111 4.86111ZM4.43213 8.34246L4.42928 8.3359L4.42919 8.33567C4.30839 8.03874 3.97028 7.89473 3.67224 8.01394C3.37312 8.13359 3.22763 8.47308 3.34728 8.7722L3.88889 8.55556C3.34728 8.7722 3.34739 8.77248 3.34751 8.77277L3.34775 8.77339L3.34831 8.77476L3.34964 8.77803L3.35324 8.78672C3.35606 8.79345 3.35973 8.80202 3.36426 8.81232C3.37332 8.83292 3.38588 8.86046 3.40215 8.89397C3.43466 8.96089 3.48224 9.05211 3.54667 9.1595C3.67505 9.37346 3.87334 9.65663 4.15697 9.94026C4.73145 10.5147 5.65124 11.0833 7 11.0833C8.34876 11.0833 9.26855 10.5147 9.84303 9.94026C10.1267 9.65663 10.325 9.37346 10.4533 9.1595C10.5178 9.05211 10.5653 8.96089 10.5978 8.89397C10.6141 8.86046 10.6267 8.83292 10.6357 8.81232C10.6403 8.80202 10.6439 8.79345 10.6468 8.78672L10.6504 8.77803L10.6517 8.77476L10.6522 8.77339L10.6525 8.77277C10.6526 8.77248 10.6527 8.7722 10.1111 8.55556L10.6527 8.7722C10.7724 8.47308 10.6269 8.13359 10.3278 8.01394C10.0297 7.89473 9.6916 8.03874 9.5708 8.33568L9.56787 8.34246C9.5644 8.35035 9.55797 8.36458 9.54842 8.38425C9.52928 8.42366 9.49786 8.48435 9.45292 8.55925C9.36255 8.70987 9.22057 8.91281 9.01808 9.1153C8.62034 9.51303 7.98457 9.91667 7 9.91667C6.01543 9.91667 5.37966 9.51303 4.98192 9.1153C4.77944 8.91281 4.63745 8.70987 4.54708 8.55925C4.50214 8.48435 4.47072 8.42366 4.45158 8.38425C4.44203 8.36458 4.4356 8.35035 4.43213 8.34246Z" fill="black"/>
</g>
</g>
<defs>
<clipPath id="clip0_295_4721">
<rect width="14" height="14" fill="white"/>
</clipPath>
</defs>
</svg>

<svg xmlns="http://www.w3.org/2000/svg" fill="none" viewBox="0 0 14 14"><g clip-path="url(#a)"><path fill="#000" fill-rule="evenodd" d="M1.167 7a5.833 5.833 0 1 1 11.666 0A5.833 5.833 0 0 1 1.167 7M7 0a7 7 0 1 0 0 14A7 7 0 0 0 7 0M4.861 5.833a.972.972 0 1 0 0-1.944.972.972 0 0 0 0 1.944m5.25-.972a.972.972 0 1 1-1.944 0 .972.972 0 0 1 1.944 0M4.432 8.342l-.003-.006a.583.583 0 0 0-1.082.436l.542-.216c-.542.216-.542.216-.541.217v.002l.002.003.003.009a2 2 0 0 0 .05.107q.048.102.144.265c.128.214.326.498.61.781.574.575 1.494 1.143 2.843 1.143s2.269-.568 2.843-1.143a4.1 4.1 0 0 0 .755-1.046l.038-.082.01-.025.004-.009.002-.003v-.002l-.54-.217.54.216a.583.583 0 0 0-1.081-.436l-.003.006-.02.042q-.028.061-.095.175c-.09.15-.232.354-.435.556-.398.398-1.033.802-2.018.802s-1.62-.404-2.018-.802a3 3 0 0 1-.53-.73z" clip-rule="evenodd"/></g><defs><clipPath id="a"><path fill="#fff" d="M0 0h14v14H0z"/></clipPath></defs></svg>
